public/images/error/success-dark.svg

<svg width="160" height="160" viewBox="0 0 160 160" fill="none" xmlns="http://www.w3.org/2000/svg">
<path fill-rule="evenodd" clip-rule="evenodd" d="M115.114 65.8958L72.0376 108.973C71.4672 109.544 70.79 109.996 70.0445 110.305C69.2991 110.614 68.5 110.773 67.693 110.773C66.886 110.773 66.0869 110.614 65.3414 110.305C64.596 109.996 63.9188 109.544 63.3484 108.973L44.8869 90.5112C44.2984 89.9443 43.8286 89.2656 43.505 88.5152C43.1815 87.7649 43.0107 86.9577 43.0025 86.1407C42.9943 85.3236 43.1488 84.5131 43.4571 83.7564C43.7655 82.9997 44.2215 82.312 44.7984 81.7334C45.3754 81.1548 46.0617 80.697 46.8176 80.3865C47.5734 80.076 48.3835 79.9193 49.2006 79.9252C50.0176 79.9312 50.8254 80.0996 51.5766 80.421C52.3278 80.7424 53.0075 81.2103 53.576 81.7972L67.693 95.9146L106.425 57.1819C106.994 56.595 107.674 56.1271 108.425 55.8056C109.176 55.4842 109.984 55.3158 110.801 55.3099C111.618 55.3039 112.428 55.4606 113.184 55.7711C113.94 56.0816 114.626 56.5394 115.203 57.118C115.78 57.6966 116.236 58.3843 116.544 59.141C116.853 59.8977 117.007 60.7082 116.999 61.5253C116.991 62.3424 116.82 63.1495 116.496 63.8998C116.173 64.6502 115.703 65.3289 115.114 65.8958ZM152.998 94.1417L145.748 80.0004L152.985 65.8462C153.866 64.1289 154.078 62.1466 153.58 60.2821C153.082 58.4175 151.909 56.8042 150.29 55.7546L136.936 47.139L136.136 31.2992C136.063 29.3603 135.263 27.5198 133.895 26.1444C132.526 24.7691 130.69 23.9595 128.751 23.8773L112.874 23.0653L104.222 9.68636C103.163 8.07751 101.548 6.91588 99.6863 6.42314C97.8243 5.93039 95.8461 6.14137 94.1299 7.01583L80.0007 14.2529L65.8468 7.01583C64.1292 6.13081 62.1434 5.91794 60.2772 6.41863C58.411 6.91932 56.7984 8.09724 55.7545 9.72317L47.1269 23.0773L31.2622 23.8773C29.3289 23.9561 27.496 24.759 26.1279 26.1272C24.7597 27.4953 23.9564 29.3283 23.8776 31.2616L23.0653 47.139L9.67457 55.7786C8.06354 56.8357 6.90058 58.4518 6.40975 60.3151C5.91892 62.1785 6.13489 64.1574 7.01607 65.871L14.253 80.0124L7.01607 94.1665C6.13629 95.882 5.92488 97.863 6.4229 99.7254C6.92092 101.588 8.09291 103.199 9.71147 104.246L23.0653 112.874L23.8653 128.702C24.0376 132.763 27.2376 135.963 31.2499 136.135L47.1269 136.935L55.7791 150.326C57.9576 153.649 62.3022 154.782 65.8714 152.985L80.0007 145.748L94.1545 152.998C95.871 153.888 97.8586 154.104 99.7264 153.603C101.594 153.102 103.207 151.92 104.247 150.29L112.874 136.935L128.702 136.148C130.645 136.078 132.49 135.278 133.869 133.907C135.247 132.535 136.057 130.694 136.136 128.751L136.936 112.874L150.327 104.222C151.937 103.167 153.1 101.554 153.59 99.6924C154.081 97.8311 153.878 95.8535 152.998 94.1417Z" fill="#7592FF"/>
</svg>

<svg xmlns="http://www.w3.org/2000/svg" width="160" height="160" fill="none" viewBox="0 0 160 160"><path fill="#7592ff" fill-rule="evenodd" d="m115.114 65.896-43.076 43.077a6.14 6.14 0 0 1-4.345 1.8 6.14 6.14 0 0 1-4.345-1.8L44.887 90.511a6.157 6.157 0 0 1-.089-8.778 6.153 6.153 0 0 1 8.778.064l14.117 14.118 38.732-38.733a6.17 6.17 0 0 1 4.376-1.872 6.153 6.153 0 0 1 4.313 10.586m37.884 28.246L145.748 80l7.237-14.154a7.786 7.786 0 0 0-2.695-10.091l-13.354-8.616-.8-15.84a7.719 7.719 0 0 0-7.385-7.422l-15.877-.812-8.652-13.379a7.83 7.83 0 0 0-10.092-2.67L80 14.253 65.848 7.016a7.766 7.766 0 0 0-10.092 2.707l-8.628 13.354-15.865.8a7.704 7.704 0 0 0-7.384 7.385l-.813 15.877-13.39 8.64A7.804 7.804 0 0 0 7.016 65.87l7.237 14.141-7.237 14.154a7.78 7.78 0 0 0 2.695 10.08l13.354 8.628.8 15.828c.173 4.061 3.373 7.261 7.385 7.433l15.877.8 8.652 13.391c2.179 3.323 6.523 4.456 10.092 2.659l14.13-7.237 14.153 7.25a7.746 7.746 0 0 0 10.093-2.708l8.627-13.355 15.828-.787a7.718 7.718 0 0 0 7.434-7.397l.8-15.877 13.391-8.652a7.79 7.79 0 0 0 3.263-4.53 7.8 7.8 0 0 0-.592-5.55" clip-rule="evenodd"/></svg>
